X:23017
T:Watson's Hornpipe
R:Hornpipe
C:Trad.
O:England, Norfolk
Z:Paul Hardy's Session Tunebook 2015 (see www.paulhardy.net). Creative Commons cc by-nc-sa licenced.
M:4/4
L:1/8
Q:1/4=160
K:D
"D"AGFG A2 d2|"G"BGde dcBA|"D"defe "G"B2 cd|"Em"efge "A"dcBA|
"D"AGFG A2 d2|"G"BGde dcBA|"D"defe "G"B2 g2|"A"fdec "D"d4:|
|:"D"f2 df agfe|"A"e2 ce aedc|"D"defd "G"B2 cd|"Em"efge "A"dcBA|
"D"AGFG A2 d2|"G"BGde dcBA|"D"defe "G"B2 g2|"A"fdec "D"d4:|

